Files/Images/Icons/list.svg

<svg xmlns="http://www.w3.org/2000/svg" viewBox="0 0 512 512"><!--! Font Awesome Pro 7.2.0 by @fontawesome - https://fontawesome.com License - https://fontawesome.com/license (Commercial License) Copyright 2026 Fonticons, Inc. --><path fill="currentColor" d="M48 112l0-32 32 0 0 32-32 0zM16 72l0 48c0 13.3 10.7 24 24 24l48 0c13.3 0 24-10.7 24-24l0-48c0-13.3-10.7-24-24-24L40 48C26.7 48 16 58.7 16 72zm160 8c-8.8 0-16 7.2-16 16s7.2 16 16 16l320 0c8.8 0 16-7.2 16-16s-7.2-16-16-16L176 80zm0 160c-8.8 0-16 7.2-16 16s7.2 16 16 16l320 0c8.8 0 16-7.2 16-16s-7.2-16-16-16l-320 0zm0 160c-8.8 0-16 7.2-16 16s7.2 16 16 16l320 0c8.8 0 16-7.2 16-16s-7.2-16-16-16l-320 0zM48 240l32 0 0 32-32 0 0-32zm-8-32c-13.3 0-24 10.7-24 24l0 48c0 13.3 10.7 24 24 24l48 0c13.3 0 24-10.7 24-24l0-48c0-13.3-10.7-24-24-24l-48 0zm8 224l0-32 32 0 0 32-32 0zM16 392l0 48c0 13.3 10.7 24 24 24l48 0c13.3 0 24-10.7 24-24l0-48c0-13.3-10.7-24-24-24l-48 0c-13.3 0-24 10.7-24 24z"/></svg>

<svg xmlns="http://www.w3.org/2000/svg" viewBox="0 0 512 512"><!--! Font Awesome Pro 6.5.2 by @fontawesome - https://fontawesome.com License - https://fontawesome.com/license (Commercial License) Copyright 2024 Fonticons, Inc. --><path d="M48 112V80H80v32H48zM16 72v48c0 13.3 10.7 24 24 24H88c13.3 0 24-10.7 24-24V72c0-13.3-10.7-24-24-24H40C26.7 48 16 58.7 16 72zm160 8c-8.8 0-16 7.2-16 16s7.2 16 16 16H496c8.8 0 16-7.2 16-16s-7.2-16-16-16H176zm0 160c-8.8 0-16 7.2-16 16s7.2 16 16 16H496c8.8 0 16-7.2 16-16s-7.2-16-16-16H176zm0 160c-8.8 0-16 7.2-16 16s7.2 16 16 16H496c8.8 0 16-7.2 16-16s-7.2-16-16-16H176zM48 240H80v32H48V240zm-8-32c-13.3 0-24 10.7-24 24v48c0 13.3 10.7 24 24 24H88c13.3 0 24-10.7 24-24V232c0-13.3-10.7-24-24-24H40zm8 224V400H80v32H48zM16 392v48c0 13.3 10.7 24 24 24H88c13.3 0 24-10.7 24-24V392c0-13.3-10.7-24-24-24H40c-13.3 0-24 10.7-24 24z"/></svg>
